;       Quadratic Gosper

axiom -.Y

.X .X
.Y .Y

rules
    X -> X.X-.Y-.Y+.X+.X-.Y-.Y.X+.Y+.X.X.Y-.X+.Y+.X.X+.Y-.X.Y-.Y-.X+.X+.Y.Y-,
    Y -> +.X.X-.Y-.Y+.X+.X.Y+.X-.Y.Y-.X-.Y+.X.Y.Y-.X-.Y.X+.X+.Y-.Y-.X+.X+.YY

angle 90
